X:3
T:Polska 
R:Polska
O:Hogstad, Östergötland
C:Helge Vilhelm Svensson
B: Ög 4
N:Smus Ög 4 bild 47
M:3/4
N: Efter mormor som sjöng den.
L:1/8
K:D
A2 | D>F A>F fd| G>B d>B ba| Ac e>c A2| df d>B A2|
D>F A>F fd|G>B d>B ba| Ac e>c A>c|1 d2 d2 :|2 d2 d2 z2 |]:
a2 f{gf}>e fa| b>a g>f g2{ag}| e>c A2 f{gf}>e| d>e f>g a2|
a2 f{gf}>e fa| g>b d>b g2{ag}| e>c A2 f{gf}>e|1 d2 d2 z2 :|2 d2 d2 |]

